!!!Genre:	Freylekhs
!!!Mode:	Minor
!!!Edition:	2015
!!!Listening/dance:	dance
!!!Free rhythm?:	No
!!!Secondary Modes:	All minor
!!!One_Mode:	yes
**kern
*I"P1
*clefG2
*k[b-e-]
*g:
*M2/4
*>A
=1
8dL
16gL
16aJJ
(8qcc/
8b-L)
16aL
16gJJ
=2
(8qcc/
8b-L)
16aL
16gJJ
4b-
=3
16aLL
16b-
16cc#X
16ddJJ
16cc#LL
16b-
16a
16gJJ
=4
(8qcc#X/
8b-L)
16aL
16b-JJ
16ccnLL
16b-
16a
16gJJ
=5
8dL
16gL
16aJJ
(8qcc/
8b-L)
16aL
16gJJ
=6
8b-L
16aL
16gJJ
4b-
=7
16aLL
16b-
16cc#X
16ddJJ
16cc#LL
16b-
16a
16b-JJ
=8
2g
=9:|!|:
*>B
8fL
16b-L
16ccJJ
8ddL
16ccL
16b-JJ
=10
8ee-L
8ee-J
4dd
=11
8fL
(16b-L
16ccJJ)
8ddL
16ccL
16b-JJ
=12
8ee-L
8ee-J
4dd
=13
8ggL
16ffL
16ee-JJ
16ddLL
16ccJ
8b-J
=14
8ddL
16ccL
16b-JJ
16b-LL
16aJ
8gJ
=15
16gLL
16d
16g
16b-JJ
8ddL
8ccJ
=16
16b-LL
16cc
16a
16b-JJ
4g
=:|!
*-
